resources/svg/earth-fill.svg

<svg fill="currentColor" viewBox="0 0 24 24" xmlns="http://www.w3.org/2000/svg"><path d="M12 2C17.5228 2 22 6.47715 22 12C22 17.5228 17.5228 22 12 22C6.47715 22 2 17.5228 2 12C2 6.47715 6.47715 2 12 2ZM16.0043 12.8777C15.6589 12.3533 15.4097 11.9746 14.4622 12.1248C12.6717 12.409 12.4732 12.7224 12.3877 13.2375L12.3636 13.3943L12.3393 13.5597C12.2416 14.2428 12.2453 14.5012 12.5589 14.8308C13.8241 16.1582 14.582 17.115 14.8116 17.6746C14.9237 17.9484 15.2119 18.7751 15.0136 19.5927C16.2372 19.1066 17.3156 18.3332 18.1653 17.3559C18.2755 16.9821 18.3551 16.5166 18.3551 15.9518V15.8472C18.3551 14.9247 18.3551 14.504 17.7031 14.1314C17.428 13.9751 17.2227 13.881 17.0582 13.8064C16.691 13.6394 16.4479 13.5297 16.1198 13.0499C16.0807 12.9928 16.0425 12.9358 16.0043 12.8777ZM12 3.83333C9.68259 3.83333 7.59062 4.79858 6.1042 6.34896C6.28116 6.47186 6.43537 6.64453 6.54129 6.88256C6.74529 7.34029 6.74529 7.8112 6.74529 8.22764C6.74488 8.55621 6.74442 8.8672 6.84992 9.09302C6.99443 9.40134 7.6164 9.53227 8.16548 9.64736C8.36166 9.68867 8.56395 9.73083 8.74797 9.78176C9.25405 9.92233 9.64554 10.3765 9.95938 10.7412C10.0896 10.8931 10.2819 11.1163 10.3783 11.1717C10.4286 11.1356 10.59 10.9608 10.6699 10.6735C10.7307 10.4547 10.7134 10.2597 10.6239 10.1543C10.0648 9.49445 10.0952 8.2232 10.268 7.75495C10.5402 7.01606 11.3905 7.07058 12.012 7.11097C12.2438 7.12589 12.4626 7.14023 12.6257 7.11976C13.2482 7.04166 13.4396 6.09538 13.575 5.91C13.8671 5.50981 14.7607 4.9071 15.3158 4.53454C14.3025 4.08382 13.1805 3.83333 12 3.83333Z"/></svg>

<svg xmlns="http://www.w3.org/2000/svg" viewBox="0 0 24 24" fill="currentColor">
    <g>
        <path fill="none" d="M0 0h24v24H0z"/>
        <path d="M12 22C6.477 22 2 17.523 2 12S6.477 2 12 2s10 4.477 10 10-4.477 10-10 10zm6.355-6.048v-.105c0-.922 0-1.343-.652-1.716a7.374 7.374 0 0 0-.645-.325c-.367-.167-.61-.276-.938-.756a12.014 12.014 0 0 1-.116-.172c-.345-.525-.594-.903-1.542-.753-1.865.296-2.003.624-2.085 1.178l-.013.091c-.121.81-.143 1.082.195 1.437 1.265 1.327 2.023 2.284 2.253 2.844.112.273.4 1.1.202 1.918a8.185 8.185 0 0 0 3.151-2.237c.11-.374.19-.84.19-1.404zM12 3.833c-2.317 0-4.41.966-5.896 2.516.177.123.331.296.437.534.204.457.204.928.204 1.345 0 .328 0 .64.105.865.144.308.766.44 1.315.554.197.042.399.084.583.135.506.14.898.595 1.211.96.13.151.323.374.42.43.05-.036.211-.211.29-.498.062-.22.044-.414-.045-.52-.56-.66-.529-1.93-.356-2.399.272-.739 1.122-.684 1.744-.644.232.015.45.03.614.009.622-.078.814-1.025.949-1.21.292-.4 1.186-1.003 1.74-1.375A8.138 8.138 0 0 0 12 3.833z"/>
    </g>
</svg>
